X: 25899
T: Mattabasset
R: jig
M: 6/8
K: Bminor
|:B2F Bcd|c2A cde|dcB cde|fgf edc|
B2F Bcd|c2A cde|dcB AcA|1 FAc B2F:|2 FAc B2c||
|:def def|g2f ~e3|d2d dcd|f2d c2B|
dcB edc|fed g2^a|b2f fed|1 cAc B2c:|2 cAc B2F||

